

d1 $ sound "{<808bd:4(3,8) bd:4(5,8) 808bd:4(7,8)>}%2" #room 1.5 #speed 7 #crush (range 2 6 sine)
d2 $ sound "bd*2 drum*4 <sd:1 feel:16> [~bd?]" #gain "5 2.5 4" #krush 2
d3 $ fast 1 $ sound "hh*2 hh*4 hh*2 <hh [hh*2]!2>" #room 0.3 # gain (range 0.6 3 rand)
d4 $ iter 4 $ sound "{<arpy:3(3,8) arpy:5(6,8) arpy:2(7,8)>}%2" #n "7 25 11 13 30 20 10 6" # room 0.5 # speed 3 # gain 1.3


hush
